X:2
T:RVW2/1/2 Basket of Eggs
T:Sung by Mr. Ansell in the Bell, Kersey, Aug 31st 1907 (1 of 3)
L:1/8
Q:1/4=80
M:5/8
I:linebreak $
K:G
"^(editorial suggestion) " d | dA c>BA |[M:3/4] d>A B/c/ d2 e/f/ |[M:5/8] g>g dcB | cd e2 d |$
dA c>BA |[M:3/4] d>A B/c/ d2 e/f/ |[M:5/8] g>g dcB | c B G2 |]

